X:1
T:The Irish Dragoons
M:4/4
L:1/8
K:G
 A2| d2 d2 e2f-e| d2 dB A2 AB| d2 d2 e2f-e| d3- B A2A-B| d2 d2 e2f-e|\
 d2d-B A2 BA| G2 G2 B2 G2| E4 D2| DE| G2 G2 GA BG| AG AB A2 GD| G2 G2 GA BG|\
 E4 D2||
